icons/evolvere-blue-folders-flat-vivid-dark-fallback/apps/64/krita.svg

<?xml version="1.0" encoding="UTF-8" standalone="no"?>
<!-- Created with Inkscape (http://www.inkscape.org/) -->

<svg
   xmlns:dc="http://purl.org/dc/elements/1.1/"
   xmlns:cc="http://creativecommons.org/ns#"
   xmlns:rdf="http://www.w3.org/1999/02/22-rdf-syntax-ns#"
   xmlns:svg="http://www.w3.org/2000/svg"
   xmlns="http://www.w3.org/2000/svg"
   xmlns:sodipodi="http://sodipodi.sourceforge.net/DTD/sodipodi-0.dtd"
   xmlns:inkscape="http://www.inkscape.org/namespaces/inkscape"
   width="64"
   height="64"
   id="svg13094"
   version="1.1"
   inkscape:version="0.91+devel r"
   sodipodi:docname="krita.svg">
  <sodipodi:namedview
     id="base"
     pagecolor="#ffffff"
     bordercolor="#666666"
     borderopacity="1.0"
     inkscape:pageopacity="0"
     inkscape:pageshadow="2"
     inkscape:zoom="8.0000004"
     inkscape:cx="44.883625"
     inkscape:cy="34.140749"
     inkscape:document-units="px"
     inkscape:current-layer="svg13094"
     showgrid="false"
     inkscape:snap-bbox="true"
     inkscape:bbox-paths="true"
     inkscape:bbox-nodes="true"
     inkscape:snap-bbox-edge-midpoints="true"
     inkscape:snap-bbox-midpoints="true"
     inkscape:object-paths="true"
     inkscape:snap-intersection-paths="true"
     inkscape:object-nodes="true"
     inkscape:snap-smooth-nodes="true"
     inkscape:snap-midpoints="true"
     inkscape:snap-object-midpoints="true"
     inkscape:snap-center="true"
     showguides="false"
     inkscape:guide-bbox="true"
     inkscape:window-width="1920"
     inkscape:window-height="1023"
     inkscape:window-x="-10"
     inkscape:window-y="35"
     inkscape:window-maximized="1"
     inkscape:snap-global="true"
     fit-margin-top="0"
     fit-margin-left="0"
     fit-margin-right="0"
     fit-margin-bottom="0"
     showborder="true"
     inkscape:showpageshadow="false"
     inkscape:snap-page="true"
     inkscape:snap-nodes="true"
     inkscape:snap-others="true">
    <inkscape:grid
       type="xygrid"
       id="grid3075"
       empspacing="5"
       visible="true"
       enabled="true"
       snapvisiblegridlinesonly="true"
       originx="1.6362304e-08px"
       originy="18px" />
    <sodipodi:guide
       orientation="0,1"
       position="-11,30"
       id="guide9148" />
    <sodipodi:guide
       orientation="1,0"
       position="32,70"
       id="guide9150" />
  </sodipodi:namedview>
  <defs
     id="defs13096" />
  <metadata
     id="metadata13099">
    <rdf:RDF>
      <cc:Work
         rdf:about="">
        <dc:format>image/svg+xml</dc:format>
        <dc:type
           rdf:resource="http://purl.org/dc/dcmitype/StillImage" />
        <dc:title></dc:title>
      </cc:Work>
    </rdf:RDF>
  </metadata>
  <path
     id="path4179"
     d="m 0,4 0,30 0,28 2,2 30,0 30,0 2,-2 L 64,34 64,4 32,4 0,4 Z"
     style="color:#000000;display:inline;overflow:visible;visibility:visible;fill:#ac7691;fill-opacity:1;fill-rule:nonzero;stroke:none;stroke-width:2.28571415;marker:none;enable-background:accumulate;opacity:1;stroke-linecap:butt;stroke-linejoin:miter;stroke-miterlimit:4;stroke-dasharray:none;stroke-dashoffset:0;stroke-opacity:1"
     inkscape:connector-curvature="0" />
  <path
     id="path4195"
     d="M 2,0 0,1 0,4 19.5625,4 39.125,4 64,4 64,1 62,0 39.125,0 19.5625,0 2,0 Z"
     style="color:#000000;display:inline;overflow:visible;visibility:visible;fill:#c385f2;fill-opacity:1;fill-rule:nonzero;stroke:none;marker:none;enable-background:accumulate"
     inkscape:connector-curvature="0" />
  <g
     id="g3043"
     inkscape:export-filename="folder.png"
     inkscape:export-xdpi="90"
     inkscape:export-ydpi="90"
     transform="translate(-0.62500009,0.082283)" />
  <g
     id="scalable"
     transform="matrix(1.0385892,0,0,1.0385892,1214.7222,1878.8121)"
     inkscape:label="#g3701"
     style="fill:#ffffff" />
  <path
     style="color:#000000;display:inline;overflow:visible;visibility:visible;opacity:1;fill:#d4bc45;fill-opacity:1;fill-rule:nonzero;stroke:none;stroke-width:2;stroke-linecap:butt;stroke-linejoin:miter;stroke-miterlimit:4;stroke-dasharray:none;stroke-dashoffset:0;stroke-opacity:1;marker:none;enable-background:accumulate"
     d="M 64 29.8125 A 34.1875 34.1875 0 0 0 29.8125 64 L 32 64 L 62 64 L 64 62 L 64 34 L 64 29.8125 z "
     id="circle4175" />
  <path
     style="color:#000000;display:inline;overflow:visible;visibility:visible;opacity:1;fill:#44ac93;fill-opacity:1;fill-rule:nonzero;stroke:none;stroke-width:2;stroke-linecap:butt;stroke-linejoin:miter;stroke-miterlimit:4;stroke-dasharray:none;stroke-dashoffset:0;stroke-opacity:1;marker:none;enable-background:accumulate"
     d="M 0 29.8125 L 0 34 L 0 62 L 2 64 L 32 64 L 34.1875 64 A 34.1875 34.1875 0 0 0 0 29.8125 z "
     id="circle4173" />
  <path
     style="color:#000000;display:inline;overflow:visible;visibility:visible;opacity:1;fill:#935bbc;fill-opacity:1;fill-rule:nonzero;stroke:none;stroke-width:2;stroke-linecap:butt;stroke-linejoin:miter;stroke-miterlimit:4;stroke-dasharray:none;stroke-dashoffset:0;stroke-opacity:1;marker:none;enable-background:accumulate"
     d="M 0 4 L 0 34 L 0 38.1875 A 34.1875 34.1875 0 0 0 34.1875 4 L 32 4 L 0 4 z "
     id="circle4177" />
  <path
     style="color:#000000;display:inline;overflow:visible;visibility:visible;opacity:1;fill:#c05cae;fill-opacity:1;fill-rule:nonzero;stroke:none;stroke-width:2;stroke-linecap:butt;stroke-linejoin:miter;stroke-miterlimit:4;stroke-dasharray:none;stroke-dashoffset:0;stroke-opacity:1;marker:none;enable-background:accumulate"
     d="M 29.8125 4 A 34.1875 34.1875 0 0 0 64 38.1875 L 64 34 L 64 4 L 32 4 L 29.8125 4 z "
     id="path4171" />
  <path
     style="color:#000000;display:inline;overflow:visible;visibility:visible;opacity:1;fill:#c047a1;fill-opacity:1;fill-rule:nonzero;stroke:none;stroke-width:2;stroke-linecap:butt;stroke-linejoin:miter;stroke-miterlimit:4;stroke-dasharray:none;stroke-dashoffset:0;stroke-opacity:1;marker:none;enable-background:accumulate"
     d="M 64 29.8125 A 34.1875 34.1875 0 0 0 47.644531 33.982422 A 34.1875 34.1875 0 0 0 64 38.1875 L 64 34 L 64 29.8125 z "
     id="circle4175-9" />
  <path
     style="color:#000000;display:inline;overflow:visible;visibility:visible;opacity:1;fill:#2a9879;fill-opacity:1;fill-rule:nonzero;stroke:none;stroke-width:2;stroke-linecap:butt;stroke-linejoin:miter;stroke-miterlimit:4;stroke-dasharray:none;stroke-dashoffset:0;stroke-opacity:1;marker:none;enable-background:accumulate"
     d="M 31.988281 52.056641 A 34.1875 34.1875 0 0 0 29.8125 64 L 32 64 L 34.1875 64 A 34.1875 34.1875 0 0 0 31.988281 52.056641 z "
     id="circle4175-5" />
  <path
     style="color:#000000;display:inline;overflow:visible;visibility:visible;opacity:1;fill:#9142b8;fill-opacity:1;fill-rule:nonzero;stroke:none;stroke-width:2;stroke-linecap:butt;stroke-linejoin:miter;stroke-miterlimit:4;stroke-dasharray:none;stroke-dashoffset:0;stroke-opacity:1;marker:none;enable-background:accumulate"
     d="M 0 29.8125 L 0 34 L 0 38.1875 A 34.1875 34.1875 0 0 0 16.355469 34.017578 A 34.1875 34.1875 0 0 0 0 29.8125 z "
     id="circle4173-0" />
  <path
     style="color:#000000;display:inline;overflow:visible;visibility:visible;opacity:1;fill:#bb3f9c;fill-opacity:1;fill-rule:nonzero;stroke:none;stroke-width:2;stroke-linecap:butt;stroke-linejoin:miter;stroke-miterlimit:4;stroke-dasharray:none;stroke-dashoffset:0;stroke-opacity:1;marker:none;enable-background:accumulate"
     d="M 29.8125 4 A 34.1875 34.1875 0 0 0 32.011719 15.943359 A 34.1875 34.1875 0 0 0 34.1875 4 L 32 4 L 29.8125 4 z "
     id="circle4177-2" />
  <path
     id="path4207"
     d="M 33.193518,17.504046 C 16.728112,17.22904 11.137328,31.194608 14.35023,38.340991 c 2.39733,5.332797 6.938755,-1.278452 10.225539,1.22192 2.566905,1.95256 -5.141426,5.65314 -2.829709,7.717387 6.20766,5.542874 15.820335,2.912768 20.258142,-0.321558 13.59145,-9.905092 11.08865,-29.122332 -8.810684,-29.454694 z m -1.093296,2.958331 c 0.300694,-0.02875 0.581684,0.002 0.836049,0.128623 1.017255,0.50692 1.210395,2.139816 0.450182,3.665759 -0.760214,1.525924 -2.262635,2.371934 -3.27989,1.865036 -1.017255,-0.506899 -1.210396,-2.204148 -0.450181,-3.730071 0.380107,-0.763033 0.961072,-1.338133 1.543478,-1.6721 0.291305,-0.166901 0.599668,-0.228505 0.900362,-0.257247 z m 8.296191,2.186593 c 0.47076,0.01399 0.861877,0.207464 1.157607,0.514493 0.788203,0.818763 0.391941,2.418938 -0.836049,3.601447 -1.228403,1.182571 -2.877557,1.46188 -3.66576,0.643116 -0.788408,-0.818702 -0.392146,-2.418877 0.83605,-3.601447 0.614099,-0.591338 1.332844,-0.974141 1.993659,-1.093297 0.165152,-0.02979 0.357573,-0.06894 0.514493,-0.06432 z m -16.785318,0.83605 c 1.134971,-0.06277 2.091927,1.256144 2.186594,2.958333 0.09425,1.702209 -0.730271,3.152809 -1.865036,3.215577 -1.13497,0.06279 -2.156238,-1.256123 -2.250904,-2.958332 -0.04713,-0.851134 0.109177,-1.67247 0.45018,-2.250904 0.341006,-0.578434 0.911784,-0.933186 1.479166,-0.964674 z m 21.930242,4.244564 c 0.669869,0.04322 1.259272,0.343887 1.543477,0.83605 0.568206,0.984307 -0.195712,2.491748 -1.672099,3.3442 -1.476594,0.852454 -3.161866,0.727061 -3.730072,-0.257245 -0.568411,-0.984307 0.195508,-2.491749 1.672101,-3.344201 0.738194,-0.426309 1.516518,-0.622022 2.186593,-0.578804 z M 33.708011,37.826499 c 1.524544,-0.02939 2.880231,0.678533 3.279888,1.865035 0.533015,1.582002 -0.773488,3.465889 -2.894019,4.180251 -2.120738,0.714362 -4.290353,-0.02579 -4.823368,-1.607789 -0.533014,-1.582002 0.773283,-3.465889 2.89402,-4.180251 0.530134,-0.178633 1.035159,-0.246956 1.543479,-0.257246 z"
     style="color:#000000;display:inline;overflow:visible;visibility:visible;fill:#efefef;fill-opacity:1;fill-rule:nonzero;stroke:none;stroke-width:2;marker:none;enable-background:accumulate"
     inkscape:connector-curvature="0" />
  <path
     style="color:#000000;display:inline;overflow:visible;visibility:visible;opacity:1;fill:#ee84dc;fill-opacity:1;fill-rule:nonzero;stroke:none;stroke-width:2.28571415;stroke-linecap:butt;stroke-linejoin:miter;stroke-miterlimit:4;stroke-dasharray:none;stroke-dashoffset:0;stroke-opacity:1;marker:none;enable-background:accumulate"
     d="M 34.1875 0 L 34.1875 4 L 39.125 4 L 64 4 L 64 1 L 62 0 L 39.125 0 L 34.1875 0 z "
     id="rect4488" />
  <path
     style="color:#000000;display:inline;overflow:visible;visibility:visible;opacity:1;fill:#f268d0;fill-opacity:1;fill-rule:nonzero;stroke:none;stroke-width:2.28571415;stroke-linecap:butt;stroke-linejoin:miter;stroke-miterlimit:4;stroke-dasharray:none;stroke-dashoffset:0;stroke-opacity:1;marker:none;enable-background:accumulate"
     d="M 29.8125 0 L 29.8125 4 L 34.1875 4 L 34.1875 0 L 29.8125 0 z "
     id="rect4490" />
  <path
     inkscape:connector-curvature="0"
     style="fill:#d770c5;fill-opacity:1"
     id="path4201"
     d="M 64,6 62,4 64,3 Z" />
  <path
     id="path4203"
     d="M 0,3 0,6 2,4 Z"
     style="fill:#d3a5f5;fill-opacity:1;fill-rule:nonzero"
     inkscape:connector-curvature="0"
     sodipodi:nodetypes="cccc" />
</svg>

<svg xmlns="http://www.w3.org/2000/svg" viewBox="0 0 64 64"><g color="#000"><path d="m0 4v30 28l2 2h30 30l2-2v-28-30h-32-32" fill="#ac7691"/><path d="m2 0l-2 1v3h19.563 19.563 24.875v-3l-2-1h-22.875-19.563-17.563" fill="#c385f2"/><path d="M64 29.8125A34.1875 34.1875 0 0 0 29.8125 64H32 62L64 62V34 29.813" fill="#d4bc45"/><path d="m0 29.813v4.188 28l2 2h30 2.188a34.1875 34.1875 0 0 0 -34.1875 -34.1875" fill="#44ac93"/><path d="m0 4v30 4.188a34.1875 34.1875 0 0 0 34.1875 -34.1875h-2.188-32" fill="#935bbc"/><path d="M29.8125 4A34.1875 34.1875 0 0 0 64 38.1875V34 4H32 29.813" fill="#c05cae"/><path d="M64 29.8125A34.1875 34.1875 0 0 0 47.644531 33.982422 34.1875 34.1875 0 0 0 64 38.1875V34 29.813" fill="#c047a1"/><path d="M31.988281 52.05664A34.1875 34.1875 0 0 0 29.8125 64H32 34.19A34.1875 34.1875 0 0 0 31.988281 52.05664" fill="#2a9879"/><path d="m0 29.813v4.188 4.188a34.1875 34.1875 0 0 0 16.355469 -4.169922 34.1875 34.1875 0 0 0 -16.355469 -4.205078" fill="#9142b8"/><path d="M29.8125 4A34.1875 34.1875 0 0 0 32.01172 15.943359 34.1875 34.1875 0 0 0 34.1875 4H32 29.813" fill="#bb3f9c"/><path d="m33.19 17.504c-16.465-.275-22.06 13.691-18.843 20.837 2.397 5.333 6.939-1.278 10.226 1.222 2.567 1.953-5.141 5.653-2.83 7.717 6.208 5.543 15.82 2.913 20.258-.322 13.591-9.905 11.09-29.12-8.811-29.455m-1.093 2.958c.301-.029.582.002.836.129 1.017.507 1.21 2.14.45 3.666-.76 1.526-2.263 2.372-3.28 1.865-1.017-.507-1.21-2.204-.45-3.73.38-.763.961-1.338 1.543-1.672.291-.167.6-.229.9-.257m8.296 2.187c.471.014.862.207 1.158.514.788.819.392 2.419-.836 3.601-1.228 1.183-2.878 1.462-3.666.643-.788-.819-.392-2.419.836-3.601.614-.591 1.333-.974 1.994-1.093.165-.03.358-.069.514-.064m-16.785.836c1.135-.063 2.092 1.256 2.187 2.958.094 1.702-.73 3.153-1.865 3.216-1.135.063-2.156-1.256-2.251-2.958-.047-.851.109-1.672.45-2.251.341-.578.912-.933 1.479-.965m21.93 4.245c.67.043 1.259.344 1.543.836.568.984-.196 2.492-1.672 3.344-1.477.852-3.162.727-3.73-.257-.568-.984.196-2.492 1.672-3.344.738-.426 1.517-.622 2.187-.579m-11.833 10.1c1.525-.029 2.88.679 3.28 1.865.533 1.582-.773 3.466-2.894 4.18-2.121.714-4.29-.026-4.823-1.608-.533-1.582.773-3.466 2.894-4.18.53-.179 1.035-.247 1.543-.257" fill="#efefef"/><path d="m34.19 0v4h4.938 24.875v-3l-2-1h-22.875-4.938" fill="#ee84dc"/><path d="m29.813 0v4h4.375v-4h-4.375" fill="#f268d0"/></g><path d="m64 6l-2-2 2-1" fill="#d770c5"/><path d="m0 3v3l2-2" fill="#d3a5f5"/></svg>
